; generated by Slic3r 1.2.0 on 2015-04-12 at 14:44:28

; external perimeters extrusion width = 4.00mm
; perimeters extrusion width = 6.80mm
; infill extrusion width = 12.78mm
; solid infill extrusion width = 6.80mm
; top infill extrusion width = 6.80mm

; external perimeters extrusion width = 4.00mm
; perimeters extrusion width = 6.80mm
; infill extrusion width = 12.78mm
; solid infill extrusion width = 6.80mm
; top infill extrusion width = 6.80mm

G21 ; set units to millimeters
G21           ;metric is good!
G90           ;absolute positioning
G92 E0        ;reset extruder
G90 ; use absolute coordinates
G92 E0
M82 ; use absolute distances for extrusion
G1 Z1.000 F9000.000
G1 X75.604 Y72.429 F9000.000
G1 X78.244 Y70.895 E0.71106 F420.000
G1 X80.797 Y81.453 E3.24084
G1 X79.616 Y82.687 E3.63874
G1 X78.636 Y83.806 E3.98514
G1 X77.802 Y84.881 E4.30201
G1 X76.944 Y86.130 E4.65489
G1 X76.062 Y87.625 E5.05929
G1 X75.495 Y88.723 E5.34703
G1 X74.946 Y89.948 E5.65964
G1 X74.431 Y91.305 E5.99791
G1 X73.976 Y92.758 E6.35248
G1 X73.632 Y94.158 E6.68820
G1 X73.360 Y95.654 E7.04243
G1 X73.183 Y97.128 E7.38817
G1 X73.095 Y98.796 E7.77702
G1 X73.097 Y99.973 E8.05138
G1 X73.156 Y101.109 E8.31614
G1 X73.340 Y102.831 E8.71949
G1 X73.607 Y104.338 E9.07612
G1 X73.930 Y105.687 E9.39920
G1 X74.362 Y107.108 E9.74505
G1 X74.764 Y108.206 E10.01736
G1 X75.452 Y109.802 E10.42221
G1 X75.596 Y110.091 E10.49742
G1 X76.143 Y111.143 E10.77345
G1 X76.892 Y112.404 E11.11512
G1 X77.658 Y113.537 E11.43374
G1 X78.558 Y114.714 E11.77867
G1 X79.482 Y115.786 E12.10847
G1 X80.569 Y116.900 E12.47091
G1 X81.629 Y117.863 E12.80457
G1 X82.771 Y118.785 E13.14629
G1 X83.912 Y119.599 E13.47274
G1 X85.194 Y120.402 E13.82505
G1 X86.438 Y121.084 E14.15546
G1 X87.716 Y121.689 E14.48475
G1 X88.891 Y122.164 E14.77998
G1 X89.384 Y122.344 E14.90225
G1 X90.542 Y122.724 E15.18616
G1 X91.862 Y123.077 E15.50437
G1 X93.328 Y123.377 E15.85287
G1 X94.755 Y123.581 E16.18867
G1 X96.257 Y123.703 E16.53966
G1 X97.729 Y123.735 E16.88262
G1 X99.121 Y123.684 E17.20688
G1 X100.591 Y123.543 E17.55092
G1 X102.013 Y123.321 E17.88618
G1 X103.181 Y123.071 E18.16422
G1 X103.493 Y122.998 E18.23895
G1 X105.117 Y122.525 E18.63295
G1 X106.256 Y122.125 E18.91406
G1 X107.527 Y121.596 E19.23483
G1 X109.104 Y120.814 E19.64464
G1 X110.164 Y120.211 E19.92876
G1 X111.343 Y119.449 E20.25575
G1 X112.557 Y118.557 E20.60656
G1 X113.425 Y117.843 E20.86845
G1 X114.695 Y116.677 E21.27000
G1 X114.923 Y116.444 E21.34577
G1 X115.752 Y115.563 E21.62772
G1 X116.682 Y114.456 E21.96425
G1 X117.576 Y113.254 E22.31332
G1 X118.314 Y112.129 E22.62663
G1 X118.916 Y111.093 E22.90566
G1 X119.679 Y109.597 E23.29694
G1 X120.294 Y108.154 E23.66207
G1 X120.764 Y106.834 E23.98856
G1 X121.194 Y105.346 E24.34933
G1 X121.546 Y103.719 E24.73685
G1 X121.723 Y102.618 E24.99676
G1 X121.853 Y101.424 E25.27649
G1 X121.945 Y99.691 E25.68062
G1 X121.921 Y98.176 E26.03364
G1 X121.818 Y96.791 E26.35698
G1 X121.668 Y95.623 E26.63121
G1 X121.348 Y93.911 E27.03703
G1 X120.954 Y92.395 E27.40176
G1 X120.523 Y91.072 E27.72581
G1 X119.947 Y89.614 E28.09088
G1 X119.376 Y88.389 E28.40589
G1 X118.693 Y87.121 E28.74130
G1 X117.891 Y85.824 E29.09642
G1 X117.087 Y84.683 E29.42138
G1 X116.127 Y83.481 E29.77982
G1 X115.225 Y82.479 E30.09367
G1 X114.074 Y81.309 E30.47606
G1 X116.617 Y70.794 E32.99571
G1 X119.459 Y72.446 E33.76146
G1 X124.849 Y68.838 E35.27200
G1 X127.908 Y71.898 E36.27978
G1 X124.294 Y77.299 E37.79345
G1 X127.241 Y82.278 E39.14091
G1 X127.774 Y83.267 E39.40263
G1 X128.399 Y84.548 E39.73472
G1 X128.687 Y85.081 E39.87575
G1 X129.157 Y86.150 E40.14787
G1 X129.641 Y87.378 E40.45531
G1 X130.094 Y88.679 E40.77601
G1 X130.574 Y90.291 E41.16773
G1 X132.007 Y95.821 E42.49833
G1 X138.315 Y97.071 E43.99599
G1 X138.315 Y101.398 E45.00381
G1 X132.019 Y102.645 E46.49871
G1 X130.571 Y108.288 E47.85563
G1 X130.242 Y109.380 E48.12138
G1 X129.815 Y110.625 E48.42790
G1 X129.645 Y111.195 E48.56640
G1 X129.161 Y112.436 E48.87671
G1 X128.622 Y113.668 E49.18987
G1 X128.089 Y114.766 E49.47422
G1 X127.252 Y116.315 E49.88423
G1 X124.331 Y121.266 E51.22311
G1 X127.873 Y126.559 E52.70629
G1 X124.813 Y129.618 E53.71409
G1 X119.531 Y126.083 E55.19458
G1 X114.543 Y129.031 E56.54415
G1 X113.544 Y129.567 E56.80814
G1 X112.248 Y130.196 E57.14368
G1 X111.709 Y130.486 E57.28622
G1 X110.630 Y130.957 E57.56049
G1 X109.384 Y131.444 E57.87203
G1 X108.070 Y131.897 E58.19566
G1 X106.437 Y132.377 E58.59221
G1 X100.871 Y133.800 E59.93019
G1 X99.638 Y140.025 E61.40840
G1 X95.311 Y140.025 E62.41621
G1 X94.077 Y133.796 E63.89517
G1 X88.448 Y132.336 E65.24959
G1 X87.354 Y132.004 E65.51584
G1 X86.108 Y131.571 E65.82319
G1 X85.537 Y131.399 E65.96197
G1 X84.294 Y130.911 E66.27300
G1 X83.061 Y130.366 E66.58700
G1 X81.961 Y129.828 E66.87223
G1 X80.411 Y128.983 E67.28348
G1 X75.452 Y126.036 E68.62705
G1 X70.151 Y129.584 E70.11263
G1 X67.091 Y126.524 E71.12042
G1 X70.650 Y121.207 E72.61043
G1 X67.733 Y116.232 E73.95367
G1 X67.204 Y115.239 E74.21566
G1 X66.583 Y113.950 E74.54894
G1 X66.298 Y113.414 E74.69047
G1 X65.833 Y112.341 E74.96279
G1 X65.352 Y111.102 E75.27229
G1 X64.906 Y109.795 E75.59399
G1 X64.432 Y108.171 E75.98798
G1 X63.018 Y102.604 E77.32591
G1 X56.682 Y101.348 E78.83024
G1 X56.682 Y97.021 E79.83803
G1 X63.025 Y95.765 E81.34406
G1 X64.493 Y90.170 E82.69129
G1 X64.823 Y89.092 E82.95378
G1 X65.254 Y87.861 E83.25752
G1 X65.425 Y87.300 E83.39424
G1 X65.911 Y86.071 E83.70206
G1 X66.450 Y84.855 E84.01194
G1 X66.997 Y83.741 E84.30082
G1 X67.821 Y82.232 E84.70131
G1 X70.758 Y77.284 E86.04142
G1 X67.130 Y71.864 E87.56061
G1 X70.190 Y68.804 E88.56853
G1 X75.105 Y72.095 E89.94634
G1 X75.799 Y66.319 F9000.000
G1 X78.331 Y64.848 E90.62858 F420.000
G1 X81.695 Y63.107 E91.51075
G1 X86.604 Y83.407 E96.37522
G1 X85.070 Y84.634 E96.83268
G1 X84.210 Y85.409 E97.10240
G1 X83.415 Y86.217 E97.36643
G1 X82.661 Y87.078 E97.63298
G1 X81.968 Y87.970 E97.89610
G1 X81.414 Y88.773 E98.12314
G1 X80.720 Y89.913 E98.43419
G1 X80.180 Y90.948 E98.70603
G1 X79.726 Y91.963 E98.96497
G1 X79.331 Y93.003 E99.22415
G1 X78.982 Y94.117 E99.49599
G1 X78.696 Y95.279 E99.77464
G1 X78.469 Y96.570 E100.07994
G1 X78.352 Y97.558 E100.31168
G1 X78.283 Y98.701 E100.57857
G1 X78.279 Y99.679 E100.80629
G1 X78.342 Y100.942 E101.10086
G1 X78.478 Y102.118 E101.37649
G1 X78.677 Y103.244 E101.64288
G1 X78.945 Y104.363 E101.91096
G1 X79.277 Y105.452 E102.17605
G1 X79.673 Y106.522 E102.44163
G1 X80.148 Y107.599 E102.71598
G1 X80.679 Y108.628 E102.98553
G1 X81.253 Y109.596 E103.24764
G1 X81.890 Y110.538 E103.51255
G1 X82.561 Y111.416 E103.76999
G1 X83.330 Y112.308 E104.04434
G1 X84.168 Y113.166 E104.32365
G1 X85.004 Y113.925 E104.58658
G1 X85.879 Y114.633 E104.84877
G1 X86.827 Y115.309 E105.12005
G1 X87.814 Y115.927 E105.39120
G1 X88.764 Y116.447 E105.64336
G1 X89.979 Y117.014 E105.95560
G1 X90.919 Y117.388 E106.19120
G1 X91.994 Y117.744 E106.45499
G1 X93.089 Y118.037 E106.71902
G1 X94.026 Y118.231 E106.94196
G1 X95.369 Y118.431 E107.25812
G1 X96.522 Y118.524 E107.52771
G1 X97.496 Y118.548 E107.75443
G1 X98.813 Y118.506 E108.06152
G1 X99.943 Y118.398 E108.32574
G1 X100.919 Y118.248 E108.55576
G1 X102.199 Y117.975 E108.86065
G1 X103.450 Y117.615 E109.16375
G1 X104.372 Y117.292 E109.39146
G1 X105.427 Y116.853 E109.65746
G1 X106.464 Y116.347 E109.92623
G1 X107.312 Y115.871 E110.15274
G1 X108.430 Y115.158 E110.46164
G1 X109.364 Y114.471 E110.73158
G1 X110.090 Y113.872 E110.95081
G1 X111.069 Y112.968 E111.26132
G1 X111.979 Y111.999 E111.57075
G1 X112.615 Y111.238 E111.80180
G1 X113.210 Y110.443 E112.03299
G1 X113.996 Y109.245 E112.36687
G1 X114.480 Y108.400 E112.59363
G1 X114.988 Y107.384 E112.85821
G1 X115.449 Y106.303 E113.13191
G1 X115.838 Y105.208 E113.40270
G1 X116.160 Y104.094 E113.67278
G1 X116.408 Y102.993 E113.93552
G1 X116.584 Y101.921 E114.18851
G1 X116.707 Y100.753 E114.46203
G1 X116.759 Y99.583 E114.73496
G1 X116.732 Y98.273 E115.03997
G1 X116.660 Y97.322 E115.26224
G1 X116.508 Y96.181 E115.53023
G1 X116.282 Y95.023 E115.80506
G1 X116.031 Y94.046 E116.04005
G1 X115.572 Y92.640 E116.38449
G1 X115.198 Y91.700 E116.62028
G1 X114.724 Y90.684 E116.88135
G1 X114.201 Y89.713 E117.13826
G1 X113.584 Y88.714 E117.41161
G1 X112.818 Y87.640 E117.71885
G1 X112.195 Y86.864 E117.95057
G1 X111.448 Y86.033 E118.21097
G1 X110.629 Y85.224 E118.47904
G1 X109.877 Y84.562 E118.71233
G1 X108.259 Y83.297 E119.19083
G1 X113.163 Y63.013 E124.05116
G1 X116.693 Y64.840 E124.97682
G1 X119.266 Y66.336 E125.67001
G1 X131.848 Y57.914 E129.19637
G1 X138.832 Y64.899 E131.49688
G1 X130.420 Y77.469 E135.01971
G1 X131.756 Y79.725 E135.63053
G1 X132.388 Y80.898 E135.94076
G1 X133.014 Y82.180 E136.27308
G1 X133.350 Y82.804 E136.43810
G1 X133.944 Y84.155 E136.78182
G1 X134.504 Y85.575 E137.13736
G1 X135.043 Y87.124 E137.51940
G1 X135.567 Y88.890 E137.94850
G1 X136.210 Y91.367 E138.54458
G1 X150.990 Y94.296 E142.05408
G1 X150.990 Y104.174 E144.35469
G1 X136.230 Y107.097 E147.85934
G1 X135.567 Y109.679 E148.48024
G1 X135.179 Y110.970 E148.79419
G1 X134.753 Y112.210 E149.09956
G1 X134.552 Y112.882 E149.26302
G1 X133.955 Y114.417 E149.64666
G1 X133.331 Y115.841 E150.00868
G1 X132.702 Y117.137 E150.34426
G1 X131.771 Y118.859 E150.80003
G1 X130.454 Y121.092 E151.40396
G1 X138.798 Y133.559 E154.89791
G1 X131.813 Y140.543 E157.19841
G1 X119.359 Y132.207 E160.68891
G1 X117.090 Y133.548 E161.30282
G1 X115.905 Y134.185 E161.61614
G1 X114.608 Y134.815 E161.95191
G1 X113.980 Y135.153 E162.11811
G1 X112.613 Y135.750 E162.46544
G1 X111.174 Y136.312 E162.82535
G1 X109.611 Y136.850 E163.21038
G1 X107.821 Y137.375 E163.64492
G1 X105.323 Y138.014 E164.24544
G1 X102.413 Y152.700 E167.73245
G1 X92.536 Y152.700 E170.03307
G1 X89.623 Y137.998 E173.52384
G1 X87.043 Y137.329 E174.14467
G1 X85.750 Y136.936 E174.45938
G1 X84.508 Y136.505 E174.76554
G1 X83.835 Y136.302 E174.92940
G1 X82.298 Y135.698 E175.31400
G1 X80.873 Y135.068 E175.67694
G1 X79.575 Y134.433 E176.01342
G1 X77.852 Y133.494 E176.47040
G1 X75.616 Y132.166 E177.07624
G1 X63.151 Y140.507 E180.56964
G1 X56.167 Y133.523 E182.87016
G1 X64.532 Y121.025 E186.37302
G1 X63.207 Y118.764 E186.98350
G1 X62.578 Y117.585 E187.29462
G1 X61.957 Y116.295 E187.62810
G1 X61.624 Y115.670 E187.79317
G1 X61.035 Y114.311 E188.13812
G1 X60.480 Y112.879 E188.49562
G1 X59.949 Y111.325 E188.87813
G1 X59.431 Y109.546 E189.30976
G1 X58.798 Y107.054 E189.90871
G1 X44.010 Y104.123 E193.42000
G1 X44.010 Y94.246 E195.72063
G1 X58.833 Y91.309 E199.24028
G1 X59.504 Y88.751 E199.85617
G1 X59.895 Y87.475 E200.16696
G1 X60.324 Y86.249 E200.46950
G1 X60.526 Y85.588 E200.63042
G1 X61.128 Y84.065 E201.01196
G1 X61.751 Y82.660 E201.37007
G1 X62.410 Y81.319 E201.71797
G1 X63.310 Y79.674 E202.15467
G1 X64.629 Y77.451 E202.75687
G1 X56.203 Y64.862 E206.28500
G1 X63.188 Y57.876 E208.58598
G1 X75.300 Y65.985 E211.98089
G1 X91.458 Y128.057 F9000.000
G1 X94.618 Y128.680 E212.34370 F420.000
G1 X96.018 Y128.913 E212.50365
G1 X97.465 Y129.115 E212.66823
G1 X99.903 Y128.760 E212.94577
G1 X101.244 Y128.522 E213.09922
G1 X103.443 Y128.073 E213.35206
G1 X81.340 Y123.810 F9000.000
G1 X79.742 Y122.767 E213.56717 F420.000
G1 X78.581 Y121.962 E213.72627
G1 X77.204 Y120.957 E213.91841
G1 X76.371 Y120.317 E214.03665
G1 X75.625 Y119.334 E214.17573
G1 X74.656 Y117.980 E214.36327
G1 X72.881 Y115.323 E214.72327
G1 X68.694 Y105.134 F9000.000
G1 X68.091 Y101.847 E215.09979 F420.000
G1 X67.829 Y100.141 E215.29424
G1 X67.705 Y99.165 E215.40511
G1 X67.829 Y98.250 E215.50908
G1 X68.083 Y96.663 E215.69013
G1 X68.412 Y94.935 E215.88830
G1 X68.797 Y93.132 E216.09608
G1 X113.598 Y123.889 F9000.000
G1 X115.962 Y122.313 E216.41624 F420.000
G1 X117.140 Y121.479 E216.57879
G1 X118.607 Y120.376 E216.78560
G1 X119.610 Y119.043 E216.97354
G1 X120.434 Y117.885 E217.13367
G1 X122.121 Y115.366 E217.47518
G1 X126.294 Y105.215 F9000.000
G1 X126.689 Y103.266 E217.69930 F420.000
G1 X126.936 Y101.908 E217.85473
G1 X127.253 Y99.849 E218.08945
G1 X127.330 Y99.244 E218.15823
G1 X127.145 Y97.909 E218.31004
G1 X126.879 Y96.297 E218.49413
G1 X126.265 Y93.204 E218.84933
G1 Z2.000 F9000.000
G1 X119.459 Y72.446 F9000.000
G1 X124.849 Y68.838 E220.35986 F420.000
G1 X127.908 Y71.898 E221.36765
G1 X124.294 Y77.299 E222.88132
G1 X126.988 Y81.852 E224.11346
G1 X127.285 Y82.402 E224.25909
G1 X127.690 Y83.230 E224.47386
G1 X128.687 Y85.081 E224.96343
G1 X129.157 Y86.150 E225.23553
G1 X129.641 Y87.378 E225.54300
G1 X130.094 Y88.679 E225.86370
G1 X130.693 Y90.750 E226.36574
G1 X132.007 Y95.821 E227.58596
G1 X138.315 Y97.071 E229.08361
G1 X138.315 Y101.398 E230.09144
G1 X132.019 Y102.645 E231.58633
G1 X130.698 Y107.793 E232.82431
G1 X130.514 Y108.403 E232.97269
G1 X130.237 Y109.211 E233.17161
G1 X129.641 Y111.205 E233.65629
G1 X129.162 Y112.434 E233.96343
G1 X128.622 Y113.668 E234.27735
G1 X128.159 Y114.622 E234.52429
G1 X127.790 Y115.302 E234.70440
G1 X127.005 Y116.733 E235.08467
G1 X124.331 Y121.266 E236.31047
G1 X127.873 Y126.559 E237.79361
G1 X124.813 Y129.618 E238.80142
G1 X119.531 Y126.082 E240.28187
G1 X114.973 Y128.776 E241.51493
G1 X114.419 Y129.074 E241.66161
G1 X113.580 Y129.481 E241.87863
G1 X111.715 Y130.483 E242.37181
G1 X110.633 Y130.956 E242.64679
G1 X109.383 Y131.445 E242.95954
G1 X108.079 Y131.894 E243.28070
G1 X105.973 Y132.496 E243.79083
G1 X100.871 Y133.800 E245.01725
G1 X99.638 Y140.025 E246.49546
G1 X95.311 Y140.025 E247.50327
G1 X94.077 Y133.796 E248.98223
G1 X88.944 Y132.465 E250.21740
G1 X88.333 Y132.280 E250.36598
G1 X87.524 Y131.999 E250.56542
G1 X85.527 Y131.396 E251.05133
G1 X84.297 Y130.912 E251.35915
G1 X83.061 Y130.366 E251.67392
G1 X82.106 Y129.899 E251.92164
G1 X81.425 Y129.526 E252.10237
G1 X79.992 Y128.734 E252.48365
G1 X75.452 Y126.036 E253.71383
G1 X70.151 Y129.584 E255.19940
G1 X67.091 Y126.524 E256.20720
G1 X70.650 Y121.207 E257.69720
G1 X67.984 Y116.661 E258.92473
G1 X67.691 Y116.109 E259.07022
G1 X67.289 Y115.276 E259.28577
G1 X66.300 Y113.420 E259.77554
G1 X65.834 Y112.344 E260.04859
G1 X65.352 Y111.101 E260.35928
G1 X64.908 Y109.804 E260.67849
G1 X64.315 Y107.710 E261.18531
G1 X63.018 Y102.604 E262.41244
G1 X56.682 Y101.348 E263.91677
G1 X56.682 Y97.021 E264.92455
G1 X63.025 Y95.765 E266.43059
G1 X64.365 Y90.659 E267.65999
G1 X64.549 Y90.059 E267.80623
G1 X64.828 Y89.260 E268.00335
G1 X65.425 Y87.300 E268.48059
G1 X65.911 Y86.071 E268.78842
G1 X66.450 Y84.855 E269.09828
G1 X66.997 Y83.741 E269.38716
G1 X68.067 Y81.818 E269.89969
G1 X70.758 Y77.284 E271.12771
G1 X67.130 Y71.864 E272.64689
G1 X70.190 Y68.804 E273.65481
G1 X75.604 Y72.429 E275.17235
G1 X78.244 Y70.895 E275.88341
G1 X80.797 Y81.453 E278.41318
G1 X79.616 Y82.687 E278.81107
G1 X78.971 Y83.413 E279.03720
G1 X78.636 Y83.806 E279.15751
G1 X77.802 Y84.881 E279.47437
G1 X76.944 Y86.130 E279.82724
G1 X76.215 Y87.343 E280.15694
G1 X75.965 Y87.804 E280.27906
G1 X75.495 Y88.723 E280.51946
G1 X74.946 Y89.948 E280.83206
G1 X74.431 Y91.305 E281.17034
G1 X73.976 Y92.759 E281.52493
G1 X73.632 Y94.158 E281.86065
G1 X73.360 Y95.655 E282.21489
G1 X73.183 Y97.128 E282.56063
G1 X73.100 Y98.499 E282.88037
G1 X73.097 Y99.973 E283.22384
G1 X73.177 Y101.419 E283.56104
G1 X73.340 Y102.831 E283.89205
G1 X73.510 Y103.835 E284.12921
G1 X73.607 Y104.338 E284.24867
G1 X73.930 Y105.687 E284.57174
G1 X74.362 Y107.108 E284.91760
G1 X74.692 Y108.019 E285.14314
G1 X74.880 Y108.504 E285.26441
G1 X75.452 Y109.802 E285.59483
G1 X75.924 Y110.733 E285.83779
G1 X76.370 Y111.537 E286.05211
G1 X76.892 Y112.404 E286.28773
G1 X77.658 Y113.537 E286.60638
G1 X78.248 Y114.320 E286.83478
G1 X78.558 Y114.714 E286.95131
G1 X79.482 Y115.786 E287.28111
G1 X80.228 Y116.561 E287.53161
G1 X80.907 Y117.217 E287.75147
G1 X81.629 Y117.863 E287.97724
G1 X82.771 Y118.785 E288.31896
G1 X83.912 Y119.599 E288.64540
G1 X85.194 Y120.402 E288.99772
G1 X86.438 Y121.083 E289.32811
G1 X87.716 Y121.689 E289.65741
G1 X88.209 Y121.894 E289.78182
G1 X89.139 Y122.259 E290.01453
G1 X90.051 Y122.569 E290.23894
G1 X90.542 Y122.724 E290.35886
G1 X91.862 Y123.077 E290.67707
G1 X93.328 Y123.377 E291.02558
G1 X94.755 Y123.581 E291.36139
G1 X96.257 Y123.703 E291.71236
